src/img/signout.svg

<svg width="28" height="28" viewBox="0 0 28 28" fill="none" xmlns="http://www.w3.org/2000/svg">
<g clip-path="url(#clip0)">
<path d="M0 6.91292V21.0871C0 23.0402 1.59331 24.6335 3.5464 24.6335H15.0022C16.9553 24.6335 18.5486 23.0402 18.5486 21.0871V18.7914C18.5486 18.403 18.2346 18.0889 17.8462 18.0889C17.4579 18.0889 17.1438 18.403 17.1438 18.7914V21.0871C17.1438 22.2692 16.1787 23.2344 14.9965 23.2344H3.5464C2.36427 23.2344 1.39914 22.2692 1.39914 21.0871V6.91292C1.39914 5.73078 2.36427 4.76566 3.5464 4.76566H15.0022C16.1844 4.76566 17.1495 5.73078 17.1495 6.91292V9.20866C17.1495 9.59699 17.4636 9.91108 17.8519 9.91108C18.2403 9.91108 18.5544 9.59699 18.5544 9.20866V6.91292C18.5544 4.95983 16.961 3.36652 15.008 3.36652H3.5464C1.59331 3.36652 0 4.95412 0 6.91292Z" fill="white"/>
<path d="M22.0094 19.2825C22.1465 19.4195 22.3235 19.4881 22.5062 19.4881C22.689 19.4881 22.866 19.4195 23.0031 19.2825L27.7944 14.4911C28.0685 14.217 28.0685 13.7773 27.7944 13.5032L23.0031 8.71181C22.729 8.4377 22.2892 8.4377 22.0151 8.71181C21.741 8.98593 21.741 9.42566 22.0151 9.69978L25.6129 13.2976H12.4838C12.0955 13.2976 11.7814 13.6117 11.7814 14C11.7814 14.3883 12.0955 14.7024 12.4838 14.7024H25.6072L22.0094 18.3002C21.7353 18.5686 21.7353 19.0141 22.0094 19.2825Z" fill="white"/>
</g>
<defs>
<clipPath id="clip0">
<rect width="28" height="28" fill="white"/>
</clipPath>
</defs>
</svg>

<svg width="28" height="28" fill="none" xmlns="http://www.w3.org/2000/svg"><g clip-path="url(#clip0)" fill="#fff"><path d="M0 6.913v14.174a3.554 3.554 0 0 0 3.546 3.547h11.456a3.553 3.553 0 0 0 3.547-3.547v-2.296a.702.702 0 1 0-1.405 0v2.296a2.152 2.152 0 0 1-2.147 2.147H3.546a2.152 2.152 0 0 1-2.148-2.147V6.913c0-1.182.965-2.147 2.147-2.147h11.456c1.182 0 2.147.965 2.147 2.147v2.296a.702.702 0 1 0 1.405 0V6.913a3.554 3.554 0 0 0-3.546-3.546H3.546A3.55 3.55 0 0 0 0 6.913z"/><path d="M22.01 19.282a.696.696 0 0 0 .496.206c.183 0 .36-.069.497-.206l4.791-4.79a.696.696 0 0 0 0-.989l-4.79-4.791a.696.696 0 0 0-.989 0 .696.696 0 0 0 0 .988l3.598 3.598h-13.13a.702.702 0 1 0 0 1.404h13.124L22.01 18.3a.69.69 0 0 0 0 .982z"/></g><defs><clipPath id="clip0"><path fill="#fff" d="M0 0h28v28H0z"/></clipPath></defs></svg>
